assets/images/logo.svg

<?xml version="1.0" encoding="UTF-8" standalone="no"?>
<svg
   xmlns:dc="http://purl.org/dc/elements/1.1/"
   xmlns:cc="http://creativecommons.org/ns#"
   xmlns:rdf="http://www.w3.org/1999/02/22-rdf-syntax-ns#"
   xmlns:svg="http://www.w3.org/2000/svg"
   xmlns="http://www.w3.org/2000/svg"
   xmlns:sodipodi="http://sodipodi.sourceforge.net/DTD/sodipodi-0.dtd"
   xmlns:inkscape="http://www.inkscape.org/namespaces/inkscape"
   height="21.813179"
   width="28.2411"
   version="1.1"
   id="svg12"
   sodipodi:docname="Music_dynamic_forte.svg"
   inkscape:version="1.0.2 (e86c870879, 2021-01-15)">
  <metadata
     id="metadata18">
    <rdf:RDF>
      <cc:Work
         rdf:about="">
        <dc:format>image/svg+xml</dc:format>
        <dc:type
           rdf:resource="http://purl.org/dc/dcmitype/StillImage" />
        <dc:title></dc:title>
      </cc:Work>
    </rdf:RDF>
  </metadata>
  <defs
     id="defs16" />
  <sodipodi:namedview
     pagecolor="#ffffff"
     bordercolor="#666666"
     borderopacity="1"
     objecttolerance="10"
     gridtolerance="10"
     guidetolerance="10"
     inkscape:pageopacity="0"
     inkscape:pageshadow="2"
     inkscape:window-width="1280"
     inkscape:window-height="768"
     id="namedview14"
     showgrid="false"
     inkscape:zoom="2"
     inkscape:cx="14.12055"
     inkscape:cy="10.90659"
     inkscape:window-x="0"
     inkscape:window-y="0"
     inkscape:window-maximized="0"
     inkscape:current-layer="svg12"
     inkscape:document-rotation="0" />
  <path
     id="path7871"
     d="M 6.624282,21.515391 C 5.7284256,21.089353 5.0159792,20.233194 4.9970782,19.241874 4.972471,17.95154 5.6943691,16.799535 7.0663917,16.78144 c 0.5733691,-0.0076 1.3265469,0.228451 1.547032,1.201064 0.024861,1.020487 -0.6640341,1.902241 -1.5261835,2.358419 0.076443,0.311106 0.3253018,0.560138 0.8150127,0.43523 2.8541081,-2.238911 4.6574421,-9.206182 4.6611001,-9.217619 l -7.5548791,0 0,-1.519534 H 12.87866 c 1.009657,-3.8668606 2.666931,-7.9731732 6.243214,-9.56545744 1.286737,-0.54856262 2.844742,-0.57941501 3.544772,-0.24660167 1.183064,0.56246142 1.492564,1.93717311 0.873884,3.38455501 -0.445238,1.04162 -1.090556,1.358259 -1.889924,1.257496 C 21.056112,4.7940606 20.533124,4.2782263 20.479945,3.8096136 20.403338,3.1344869 20.671778,2.5291456 21.380259,2.0890375 21.756847,1.8551017 22.166484,1.8473971 22.336547,1.5430346 21.525311,0.29769177 20.177863,1.0862087 19.355432,2.2922462 17.905971,4.6569901 17.122207,7.4411649 16.332484,10.166304 l 7.523972,-0.0036 -0.0013,1.354439 -7.793277,0.04144 c -1.09264,3.050593 -2.537916,6.455953 -4.336002,8.346656 -1.546846,1.61335 -3.6130841,2.318057 -5.101552,1.610198 z"
     style="fill:#000000;fill-opacity:1;stroke-width:0.191707"
     sodipodi:nodetypes="sscccccccccssccscccccccss" />
</svg>

<?xml version="1.0" encoding="UTF-8"?>
<svg version="1.1" viewBox="0 0 28.241 21.813" xmlns="http://www.w3.org/2000/svg" xmlns:cc="http://creativecommons.org/ns#">
<path d="m6.6243 21.515c-0.89586-0.42604-1.6083-1.2822-1.6272-2.2735-0.024607-1.2903 0.69729-2.4423 2.0693-2.4604 0.57337-0.0076 1.3265 0.22845 1.547 1.2011 0.024861 1.0205-0.66403 1.9022-1.5262 2.3584 0.076443 0.31111 0.3253 0.56014 0.81501 0.43523 2.8541-2.2389 4.6574-9.2062 4.6611-9.2176h-7.5549v-1.5195h7.8702c1.0097-3.8669 2.6669-7.9732 6.2432-9.5655 1.2867-0.54856 2.8447-0.57942 3.5448-0.2466 1.1831 0.56246 1.4926 1.9372 0.87388 3.3846-0.44524 1.0416-1.0906 1.3583-1.8899 1.2575-0.59449-0.074931-1.1175-0.59077-1.1707-1.0594-0.076607-0.67513 0.19183-1.2805 0.90031-1.7206 0.37659-0.23394 0.78622-0.24164 0.95629-0.546-0.81124-1.2453-2.1587-0.45683-2.9811 0.74921-1.4495 2.3647-2.2332 5.1489-3.0229 7.8741l7.524-0.0036-0.0013 1.3544-7.7933 0.04144c-1.0926 3.0506-2.5379 6.456-4.336 8.3467-1.5468 1.6134-3.6131 2.3181-5.1016 1.6102z" stroke-width=".19171"/>
</svg>
